X: 14476
T: Gan Ainm
R: reel
M: 4/4
K: Aminor
|:EAAc BGGB|AFF2 GEED|EAAc BGGc|1 BAGE A3D:|2 BAGE A4||
aeea fed2|cdBc AEE2|aeea fed2|cdBc A4|
aeea fed2|cdBc AEE2|A,CEG FAcd|cAGE A4||

